X:5
T:Fathom the bowl
C:From Barrett’s “English Folksongs” 1891, No. 40 
%%VWML:SBG-1-1-87-0
F:http://www.vwml.org/record/SBG/1/1/87
Z:Original Sibleius Transcription by Martin and Shan Graebe
M:3/4
L:1/8
K:C
z2z2G2 | c2>B2 cB | c2 G2 ED | C2 E2 G2 | c4 c2 | (d2>e2) dc | B2 G2 B2 | A2 c2 ^F2 | G4 GF |
E2G2G2|ABc2G2|A2d3c|(c2B2)G2|c3de2|c2G2E2|F2D2G2|
C4G2|G2E3F|G4G2|A2d2c2|(c2B2)G2|c3de2|c2G2E2|F2D2G2|C4||

